!!!COM: Bach, Johann Sebastian
!!!OTL: Sinfonia No. 2; in c minor; BWV 788
!! Three-part sinfonia
!! Bach-Gesellschaft edition, pp.20-21
!! Performance duration: 2:10; performance tempo: 88.6 quarter-notes per minute.
!! (Andras Schiff, piano, "Two-Part Inventions BWV 772a-786; Three-part
!! Inventions BWV 787-801" Decca 411 974-2)
**kern	**kern	**kern
*staff2	*staff1	*staff1
*M12/8	*M12/8	*M12/8
*MM88.6	*MM88.6	*MM88.6
*c:	*c:	*c:
=1	=1	=1
4.C	1.r	8cc
.	.	8g
.	.	8ee-
4.c	.	8ee-
.	.	8cc
.	.	8gg
8Bn	.	4.gg
8An	.	.
8G	.	.
8f	.	4.g
8e-	.	.
8d	.	.
=2	=2	=2
4e-	1.r	8cc
.	.	8dd
8c	.	8ee-
4A-	.	8ff
.	.	8gg
8F	.	8aa-
4G	.	8bn
.	.	8aa-
8An	.	8gg
4Bn	.	8ff
.	.	8ee-
8G	.	8dd
=3	=3	=3
4c	8c	4.ee-
.	8G	.
8r	8e-	.
4.r	8e-	[4.cc
.	8c	.
.	8g	.
2.r	4.g	8cc]
.	.	8bn
.	.	8cc
.	4.G	8dd
.	.	8ee-
.	.	8ff
=4	=4	=4
1.r	8c	8ee-
.	8d	8ff
.	8e-	8ee-
.	8f	8dd
.	8g	8ee-
.	8a-	8cc
.	8Bn	[2.gg
.	8a-	.
.	8g	.
.	8f	.
.	8e-	.
.	8d	.
=5	=5	=5
8c	4e-	4gg]
8G	.	.
8e-	8r	8gg
8e-	4.r	4cc
8c	.	.
8g	.	8ee-
4.A-	16r	4f
.	16c	.
.	16d	.
.	16e-	.
.	16f	8r
.	16g	.
4.r	16a-	4.r
.	16b-	.
.	16a-	.
.	16g	.
.	16f	.
.	16e-	.
=6	=6	=6
8B-	4d	4r
8F	.	.
8d	8r	8ff
8d	4.r	4b-
8B-	.	.
8f	.	8dd
4.G	16r	4e-
.	16B-	.
.	16c	.
.	16d	.
.	16e-	8r
.	16f	.
4.r	16g	4.r
.	16a-	.
.	16g	.
.	16f	.
.	16e-	.
.	16d	.
=7	=7	=7
8A-	4c	[2.ee-M
8E-	.	.
8c	8r	.
8c	8r	.
8A-	8r	.
8e-	8cc	.
8G	[4.b-	2.ee-_
8E-	.	.
8B-	.	.
8B-	4b-]	.
8G	.	.
8e-	8cc	.
=8	=8	=8
8F	[4.a-	4ee-]
8G	.	.
8A-	.	8ff
8B-	4a-]	[4.dd
8c	.	.
8d	8b-	.
4.E-	4g	8dd]
.	.	16gg
.	.	16ff
.	8r	16ee-
.	.	16dd
4.e-	4.r	16cc
.	.	16dd
.	.	16cc
.	.	16b-
.	.	16an
.	.	16g
=9	=9	=9
4.d	2.r	8f#
.	.	16aan
.	.	16gg
.	.	16ff#
.	.	16een
4.F#	.	16dd
.	.	16ee-
.	.	16dd
.	.	16cc
.	.	16b-
.	.	16an
8G	4.r	2.b-
8D	.	.
8B-	.	.
8B-	4.g	.
8G	.	.
8d	.	.
=10	=10	=10
4.d	8f#	4.an
.	8en	.
.	8d	.
4.D	8cc	4.ff#
.	8b-	.
.	8an	.
8G	8b-	4.gg
8An	8cc	.
8B-	8b-	.
8c	8a	4.r
8d	8b-	.
8e-	8g	.
=11	=11	=11
8F#	8dd	2.r
8e-	8cc	.
8d	8b-	.
8c	8an	.
8B-	8g	.
8An	8f#	.
4.B-	4g	8g
.	.	8d
.	8r	8b-
[4.G	4d	8b-
.	.	8g
.	8r	8dd
=12	=12	=12
8G]	4an	4.dd
8F#	.	.
8G	8r	.
8An	4f#	4.d
8B-	.	.
8c	8r	.
8B-	4g	8g
8c	.	8an
8B-	8r	8b-
8A	4.r	8cc
8B-	.	8dd
8G	.	8ee-
=13	=13	=13
8d	2.r	8f#
8c	.	8ee-
8B-	.	8dd
8An	.	8cc
8G	.	8b-
8F#	.	8an
4G	8g	4b-
.	8d	.
8d	8b-	8r
4G	8b-	4.r
.	8g	.
8B-	8dd	.
=14	=14	=14
4C	4e-	16r
.	.	16g
.	.	16an
.	.	16b-
8r	8r	16cc
.	.	16dd
4.r	4.r	16ee-
.	.	16ff
.	.	16ee-
.	.	16dd
.	.	16cc
.	.	16b-
8r	8f	4an
8r	8c	.
8c	8a	8r
4F	8a	4.r
.	8f	.
8An	8cc	.
=15	=15	=15
4BB-	4d	16r
.	.	16f
.	.	16g
.	.	16an
8r	8r	16b-
.	.	16cc
4.r	4.r	16dd
.	.	16ee-
.	.	16dd
.	.	16cc
.	.	16b-
.	.	16a
[2.BB-M	8e-	4g
.	8B-	.
.	8g	8r
.	8g	8r
.	8e-	8r
.	8b-	8g
=16	=16	=16
2.BB-_	8d	4f
.	8B-	.
.	8f	8r
.	8f	8r
.	8d	8r
.	8b-	8g
4.BB-]	8c	4e-
.	8d	.
.	8e-	8r
[4.AAn	8f	8r
.	8g	8r
.	8an	8f
=17	=17	=17
8AA]	4B-	4d
16D	.	.
16C	.	.
16BB-	8r	8dd
16AAn	.	.
16GG	8r	[4.b-
16AA	.	.
16GG	8r	.
16FF	.	.
16EE-	8g	.
16DD	.	.
8CC	[4.e-	4b-]
16E-	.	.
16D	.	.
16C	.	8ee-
16BB-	.	.
16AA	4e-]	[4.cc
16BB-	.	.
16AA	.	.
16GG	.	.
16FF#	8an	.
16EEn	.	.
=18	=18	=18
4.DD	8f#	4.cc]
.	16dd	.
.	16cc	.
.	16b-	.
.	16an	.
8r	16g	[4.b-
.	16a	.
16r	16g	.
16GG	16fn	.
16AAn	16e-	.
16BB-	16d	.
16C	[4.e-	8b-]
16BB-	.	.
16C	.	8an
16D	.	.
16E-	.	8g
16C	.	.
16D	8e-]	4.f#
16E-	.	.
16D	8An	.
16C	.	.
16BB-	8c	.
16AA	.	.
=19	=19	=19
4GG	4B-	8g
.	.	8d
8r	8r	8b-
4.r	4.r	8b-
.	.	8g
.	.	8dd-
8r	8r	[2.dd-
16B-	8r	.
16A-	.	.
16G	8b-	.
16F	.	.
16En	4g	.
16F	.	.
16E	.	.
16Dn	.	.
16C	8b-	.
16BB-	.	.
=20	=20	=20
16AA-	4en	8dd-]
16F	.	.
16En	.	8b-
16D	.	.
16C	8r	8een
16BB-	.	.
16AA-	4.r	8ee
16BB-	.	.
16AA-	.	8cc
16GG	.	.
16FF	.	8gg
16EEn	.	.
4FF	16r	[2.aa-
.	16ff	.
.	16ee-	.
.	16dd-	.
8r	16cc	.
.	16b-	.
4.r	16a-	.
.	16b-	.
.	16a-	.
.	16g	.
.	16f	.
.	16e-	.
=21	=21	=21
2.r	8d	4.aa-_
.	8B-	.
.	8f	.
.	8f	16aa-]
.	.	16bb-
.	8d	16aa-
.	.	16gg
.	8a-	16ff
.	.	16ee-
8r	[2.a-	16dd
.	.	16ee-
8r	.	16dd
.	.	16cc
8g	.	16b-
.	.	16cc
4f	.	16dd
.	.	16ee-
.	.	16ff
.	.	16gg
8e-	.	16aa-
.	.	16bb-
=22	=22	=22
4d	8a-]	16ccc
.	.	16bb-
.	8f	16aa-
.	.	16gg
8a-	8dd	16ff
.	.	16ee-
4g	8dd	16ff
.	.	16gg
.	8b-	16aa-
.	.	16ccc
8f	8dd	16bb-
.	.	16aa-
16e-	[2.ee-	[2.gg
16G	.	.
16A-	.	.
16B-	.	.
16c	.	.
16d	.	.
16e-	.	.
16f	.	.
16e-	.	.
16d	.	.
16c	.	.
16B-	.	.
=23	=23	=23
[2.A-	8ee-]	4gg]
.	[4cc	.
.	.	8gg
.	4cc]	8gg
.	.	8ee-
.	8ee-	8ccc
16A-]	[2.dd	[2.ff
16F	.	.
16G	.	.
16An	.	.
16Bn	.	.
16c	.	.
16d	.	.
16e-	.	.
16d	.	.
16c	.	.
16B	.	.
16A	.	.
=24	=24	=24
[2.G	8dd]	4ff]
.	[4bn	.
.	.	8ff
.	4b]	8ff
.	.	8dd
.	8dd	8bbn
16G]	[2.cc	[2.ee-
16E-	.	.
16F	.	.
16G	.	.
16An	.	.
16Bn	.	.
16c	.	.
16d	.	.
16c	.	.
16B-	.	.
16A-	.	.
16G	.	.
=25	=25	=25
[2.F	4cc]	8ee-]
.	.	16aa-
.	.	16gg
.	8r	16ff
.	.	16ee-
.	4.r	16dd
.	.	16ee-
.	.	16dd
.	.	16cc
.	.	16bn
.	.	16an
4.F]	8r	4.b
.	16g	.
.	16f	.
.	16e-	.
.	16d	.
[4.E-	16c	4.cc
.	16d	.
.	16c	.
.	16B-	.
.	16A-	.
.	16G	.
=26	=26	=26
16E-]	4A-	[2.ff
16G	.	.
16F	.	.
16E-	.	.
16D	[8a-	.
16C	.	.
16BBn	8a-]	.
16C	.	.
16BB	8f	.
16AAn	.	.
16GG	[8bn	.
16FF	.	.
4.EE-	8b]	4ff]
.	8g	.
.	8cc	[8ee-
4.FF	[4.a-	8ee-]
.	.	8dd
.	.	8ff
=27	=27	=27
4.GG	8a-]	4.bn
.	8g	.
.	8f	.
4.AAn	8e-	4.cc
.	8d	.
.	8c	.
8BBn	4f	4dd
8GG	.	.
8C	8e-	[8cc
8AA-	4.d	4cc]
8FF	.	.
8GG	.	8b
=28	=28	=28
8C	4e-	4cc
8GG	.	.
8E-	8r	8gg
8E-	4.r	4cc
8C	.	.
8G	.	8ee-
8F	16r	4a-
.	16c	.
8C	16d	.
.	16e-	.
8A-	16f	8r
.	16g	.
8A-	16a-	4.r
.	16b-	.
8F	16a-	.
.	16g	.
8c	16f	.
.	16e-	.
=29	=29	=29
4B-	8d	8r
.	8F	8r
8r	8d	8ff
4.r	8d	4b-
.	8B-	.
.	8f	8dd
2.r	8e-	16g
.	.	16b-
.	8B-	16cc
.	.	16dd
.	8g	16ee-
.	.	16ff
.	8g	16gg
.	.	16aa-
.	8e-	16gg
.	.	16ff
.	8b-	16ee-
.	.	16dd
=30	=30	=30
8F	4.a-	[2.ccM
8C	.	.
8A-	.	.
8A-	8r	.
8F	8r	.
8c	8a-	.
8E-	[4.g	2.cc_
8C	.	.
8G	.	.
8G	4g]	.
8E-	.	.
8c	8a-	.
=31	=31	=31
8D	[2.f	4.cc]
8E-	.	.
8F	.	.
8G	.	8bn
8An	.	8cc
8Bn	.	8dd
[2.E-	16f]	[2.g
.	16G	.
.	16An	.
.	16Bn	.
.	16c	.
.	16d	.
.	16e-	.
.	16d	.
.	16c	.
.	16d	.
.	16e-	.
.	16f	.
=32	=32	=32
16E-]	4g	16g]
16G	.	16bn
16F	.	16cc
16E-	.	16dd
16D	8r	16ee-
16C	.	16ff
4G	8r	8gg
.	8e-	8cc
8GG	8d	8b
2.CC;	2.en;	2.cc;
====	====	====
*-	*-	*-
